w3c-2025/svg/w3c-letters-white.svg

<?xml version="1.0" encoding="UTF-8"?>
<svg id="Layer_1" xmlns="http://www.w3.org/2000/svg" width="5in" height="5in" version="1.1" viewBox="0 0 360 360">
  <!-- Generator: Adobe Illustrator 29.1.0, SVG Export Plug-In . SVG Version: 2.1.0 Build 142)  -->
  <defs>
    <style>
      .st0 {
        fill: #fff;
      }
    </style>
  </defs>
  <g>
    <path class="st0" d="M148.62207,277.35891h-9.54443l-14.02588-41.99414-13.77637,41.99414h-9.62744l-17.34521-58.09473h11.45312l11.70166,41.41309,12.94678-41.41309h10.125l13.27881,41.49609,11.61914-41.49609h9.79297l-16.59814,58.09473Z"/>
    <path class="st0" d="M167.45996,268.47902l5.39453-6.97168c2.90479,4.31543,7.38672,7.2207,12.44922,7.2207,6.22461,0,9.37793-3.65234,9.37793-8.05078,0-5.31152-4.06641-8.21582-10.78906-8.21582h-4.14941v-9.54492h3.73438c4.73047,0,8.96289-2.9873,8.96289-7.9668,0-4.14941-2.40625-7.05469-7.38574-7.05469-4.64795,0-8.05029,1.99219-10.95508,6.22461l-5.31152-6.72266c3.15381-5.8916,9.21191-9.0459,17.17969-9.0459,9.95898,0,16.68164,5.64355,16.68164,14.77246,0,6.55664-2.98828,11.2041-8.88086,13.77734v.24902c7.2207,1.24414,11.12109,6.9707,11.12109,13.85938,0,10.70605-8.29883,17.2627-19.00488,17.2627-8.88037,0-15.354-3.90039-18.4248-9.79297Z"/>
    <path class="st0" d="M261.90625,271.71535c-3.65137,3.90039-11.03809,6.55664-18.58984,6.55664-17.76074,0-29.96094-11.86816-29.96094-29.96094,0-16.68066,10.54004-29.95996,29.71191-29.95996,7.55176,0,13.85938,2.40723,17.67676,5.89258l-4.56445,7.55273c-3.48535-2.32422-7.30273-3.90137-13.1123-3.90137-10.78906,0-18.92285,7.80176-18.92285,20.41602,0,12.11719,8.2168,20.41699,20.08398,20.41699,4.89746,0,9.79395-1.57715,13.77734-4.64746l3.90039,7.63477Z"/>
  </g>
  <g>
    <path class="st0" d="M243.45258,163.86703c-3.57647-2.83889-8.79805-2.23522-11.63693,1.34126-3.5163,4.43335-6.7101,7.10188-10.35098,8.65502-6.71476,2.85732-12.40651,1.64977-17.90927-3.80213-5.39215-5.34151-10.64593-11.16209-15.74313-16.80321-2.4933-2.76049-4.99104-5.52564-7.52121-8.25858-4.32296-4.66855-8.6688-9.31866-13.01019-13.97343l-.38267-.41022c-9.44304-10.10667-19.20412-20.55915-28.61961-31.05761-7.4659-8.32787-19.00134-12.45271-30.09902-10.78429-11.34199,1.69596-20.51317,8.95463-25.82692,20.43477-5.12008,11.05615-3.38725,23.61925,4.51641,32.78577,13.90436,16.1258,25.63346,29.45848,39.3717,41.9987,5.61802,5.12474,12.41584,7.85302,19.65587,7.88989,4.6963.0231,11.77509-.50684,18.99689-5.36905,3.16159-2.12906,6.10642-4.31829,7.40149-7.65957,1.31816-3.41946.08751-7.35064-3.00013-9.56742-2.99568-2.15682-6.92686-2.00489-9.78418.36869-.35958.2994-.75136.6452-1.1798,1.01855-4.48886,3.93117-10.07468,8.82538-21.46264.64965-10.43383-7.49366-18.51273-17.31471-27.87292-28.68869-3.05099-3.70551-6.20792-7.53985-9.5814-11.45725-3.60402-4.17993-4.38292-9.93144-2.03244-15.01487,2.05087-4.42424,6.00959-9.92699,13.25449-11.00996,5.48877-.8251,11.64138,1.36859,15.31448,5.46122,9.49389,10.59063,19.32871,21.12595,28.84082,31.30636,4.45666,4.77004,8.9131,9.54453,13.34667,14.33301,2.48418,2.6823,4.93595,5.3966,7.42458,8.15263,5.22624,5.78393,10.6275,11.76131,16.33303,17.4162,10.30034,10.20796,23.10309,12.79342,36.06729,7.2769,6.22635-2.6592,11.57697-6.9775,16.83075-13.60008,2.83422-3.5716,2.23522-8.78872-1.34104-11.63227Z"/>
    <path class="st0" d="M256.41149,117.86088c5.35528-2.53949,9.56763-7.31864,9.96852-13.11634,1.01855-10.06514-7.26779-19.69719-19.45775-21.18592-7.48434-.94926-14.42963,1.26752-19.35159,5.34617-2.63145,2.18902-3.34127,6.24013-1.06008,9.09745,2.4933,2.97259,5.36905,3.4932,10.07468.90794,1.68664-.95859,4.22146-1.75592,7.00971-1.56247,5.25845.36424,6.7654,5.10186,6.61792,7.25401-.0231.31805.00932,7.65491-7.39683,7.14341l-2.79291-.19345c-3.11074-.2121-6.22169,2.69607-6.45201,6.02336-.24897,3.5396,2.34116,6.63191,5.56251,6.85778l3.43345.23498c9.44791.65452,8.46157,8.67346,8.26345,9.95475-.18434,3.68687-6.10197,9.94076-16.65573,2.82956-3.58092-2.41024-29.122-34.49105-29.122-34.49105-12.10224-15.64629-32.66605-18.40233-48.89314-6.54885-1.78347,1.30418-2.95882,3.22601-3.29974,5.41524-.33648,2.18436.19345,4.3736,1.49784,6.15707,1.30418,1.78347,3.22601,2.95882,5.41058,3.29974,2.19813.34114,4.37805-.19345,6.16173-1.49784,11.06992-8.08801,20.93695-3.26754,26.01105,3.2953,0,0,27.42159,35.26995,34.48194,39.00746,4.58104,2.42422,9.36485,3.82523,14.22685,4.16171,14.92291,1.03232,24.01103-7.1896,26.46301-18.45297,1.60824-7.38305-3.16625-16.60954-10.70145-19.93704Z"/>
  </g>
</svg>

<?xml version="1.0" encoding="UTF-8" standalone="no"?>
<svg
   width="60"
   height="59.995983"
   version="1.1"
   viewBox="0 0 45 44.996985"
   id="svg16"
   xmlns="http://www.w3.org/2000/svg"
   xmlns:svg="http://www.w3.org/2000/svg">
  <defs
     id="defs20" />
  <g
     aria-label="W3C"
     transform="matrix(0.23939031,0,0,0.23939031,-19.018842,-21.618633)"
     id="g8">
    <path
       d="M 148.62207,277.35891 H 139.07764 L 125.05176,235.36477 111.27539,277.35891 H 101.64795 L 84.30274,219.26418 H 95.75586 L 107.45752,260.67727 120.4043,219.26418 H 130.5293 L 143.80811,260.76027 155.42725,219.26418 H 165.22022 L 148.62208,277.35891 Z"
       style="fill:#ffffff"
       id="path2" />
    <path
       d="M 167.45996,268.47902 172.85449,261.50734 C 175.75928,265.82277 180.24121,268.72804 185.30371,268.72804 191.52832,268.72804 194.68164,265.0757 194.68164,260.67726 194.68164,255.36574 190.61523,252.46144 183.89258,252.46144 H 179.74317 V 242.91652 H 183.47755 C 188.20802,242.91652 192.44044,239.92922 192.44044,234.94972 192.44044,230.80031 190.03419,227.89503 185.0547,227.89503 180.40675,227.89503 177.00441,229.88722 174.09962,234.11964 L 168.7881,227.39698 C 171.94191,221.50538 178.00001,218.35108 185.96779,218.35108 195.92677,218.35108 202.64943,223.99463 202.64943,233.12354 202.64943,239.68018 199.66115,244.32764 193.76857,246.90088 V 247.1499 C 200.98927,248.39404 204.88966,254.1206 204.88966,261.00928 204.88966,271.71533 196.59083,278.27198 185.88478,278.27198 177.00441,278.27198 170.53078,274.37159 167.45998,268.47901 Z"
       style="fill:#ffffff"
       id="path4" />
    <path
       d="M 261.90625,271.71535 C 258.25488,275.61574 250.86816,278.27199 243.31641,278.27199 225.55567,278.27199 213.35547,266.40383 213.35547,248.31105 213.35547,231.63039 223.89551,218.35109 243.06738,218.35109 250.61914,218.35109 256.92676,220.75832 260.74414,224.24367 L 256.17969,231.7964 C 252.69434,229.47218 248.87696,227.89503 243.06739,227.89503 232.27833,227.89503 224.14454,235.69679 224.14454,248.31105 224.14454,260.42824 232.36134,268.72804 244.22852,268.72804 249.12598,268.72804 254.02247,267.15089 258.00586,264.08058 Z"
       style="fill:#ffffff"
       id="path6" />
  </g>
  <g
     transform="matrix(0.23939031,0,0,0.23939031,-19.018842,-19.95092)"
     id="g14">
    <path
       d="M 243.45258,163.86703 C 239.87611,161.02814 234.65453,161.63181 231.81565,165.20829 228.29935,169.64164 225.10555,172.31017 221.46467,173.86331 214.74991,176.72063 209.05816,175.51308 203.5554,170.06118 198.16325,164.71967 192.90947,158.89909 187.81227,153.25797 185.31897,150.49748 182.82123,147.73233 180.29106,144.99939 175.9681,140.33084 171.62226,135.68073 167.28087,131.02596 L 166.8982,130.61574 C 157.45516,120.50907 147.69408,110.05659 138.27859,99.55813 130.81269,91.23026 119.27725,87.10542 108.17957,88.77384 96.83758,90.4698 87.6664,97.72847 82.35265,109.20861 77.23257,120.26476 78.9654,132.82786 86.86906,141.99438 100.77342,158.12018 112.50252,171.45286 126.24076,183.99308 131.85878,189.11782 138.6566,191.8461 145.89663,191.88297 150.59293,191.90607 157.67172,191.37613 164.89352,186.51392 168.05511,184.38486 170.99994,182.19563 172.29501,178.85435 173.61317,175.43489 172.38252,171.50371 169.29488,169.28693 166.2992,167.13011 162.36802,167.28204 159.5107,169.65562 159.15112,169.95502 158.75934,170.30082 158.3309,170.67417 153.84204,174.60534 148.25622,179.49955 136.86826,171.32382 126.43443,163.83016 118.35553,154.00911 108.99534,142.63513 105.94435,138.92962 102.78742,135.09528 99.41394,131.17788 95.80992,126.99795 95.03102,121.24644 97.3815,116.16301 99.43237,111.73877 103.39109,106.23602 110.63599,105.15305 116.12476,104.32795 122.27737,106.52164 125.95047,110.61427 135.44436,121.2049 145.27918,131.74022 154.79129,141.92063 159.24795,146.69067 163.70439,151.46516 168.13796,156.25364 170.62214,158.93594 173.07391,161.65024 175.56254,164.40627 180.78878,170.1902 186.19004,176.16758 191.89557,181.82247 202.19591,192.03043 214.99866,194.61589 227.96286,189.09937 234.18921,186.44017 239.53983,182.12187 244.79361,175.49929 247.62783,171.92769 247.02883,166.71057 243.45257,163.86702 Z"
       style="fill:#ffffff"
       id="path10" />
    <path
       d="M 256.41149,117.86088 C 261.76677,115.32139 265.97912,110.54224 266.38001,104.74454 267.39856,94.6794 259.11222,85.04735 246.92226,83.55862 239.43792,82.60936 232.49263,84.82614 227.57067,88.90479 224.93922,91.09381 224.2294,95.14492 226.51059,98.00224 229.00389,100.97483 231.87964,101.49544 236.58527,98.91018 238.27191,97.95159 240.80673,97.15426 243.59498,97.34771 248.85343,97.71195 250.36038,102.44957 250.2129,104.60172 250.1898,104.91977 250.22222,112.25663 242.81607,111.74513 L 240.02316,111.55168 C 236.91242,111.33958 233.80147,114.24775 233.57115,117.57504 233.32218,121.11464 235.91231,124.20695 239.13366,124.43282 L 242.56711,124.6678 C 252.01502,125.32232 251.02868,133.34126 250.83056,134.62255 250.64622,138.30942 244.72859,144.56331 234.17483,137.45211 230.59391,135.04187 205.05283,102.96106 205.05283,102.96106 192.95059,87.31477 172.38678,84.55873 156.15969,96.41221 154.37622,97.71639 153.20087,99.63822 152.85995,101.82745 152.52347,104.01181 153.0534,106.20105 154.35779,107.98452 155.66197,109.76799 157.5838,110.94334 159.76837,111.28426 161.9665,111.6254 164.14642,111.09081 165.9301,109.78642 177.00002,101.69841 186.86705,106.51888 191.94115,113.08172 191.94115,113.08172 219.36274,148.35167 226.42309,152.08918 231.00413,154.5134 235.78794,155.91441 240.64994,156.25089 255.57285,157.28321 264.66097,149.06129 267.11295,137.79792 268.72119,130.41487 263.9467,121.18838 256.4115,117.86088 Z"
       style="fill:#ffffff"
       id="path12" />
  </g>
</svg>
